X:1
T:Heralds in Love
C:Heather Rose Jones, 1990
P:AB x 3
C:arr. Paul Butler
K:C major
M:12/8
L:1/8
P:A
g2f | "C"e3 d3 c3 g2f | e2f d2e "Am"c2A B2c | "G"d3 G3 G3 B2c | d2cd2e "G7"f3 g2f | 
"C"e3 d3 c3 g2f | e2f d2e "Am"c2A B2c | "G"d3 G3 G3 A2B | "C"c6 c3 || 
P:B
G3 | "C"c3 G3 G3 A2B | c2B c2d "Em"e3 d2e | "F"f2e d2c "Em"e2c B2A | 
"F"c2B A3 "G"G3 A2B | "C"c2G E2G c3 d2e | "F"f2c A2c f3 g2f  | "C"e3 d2c "G"B2c d2B | "C"c6 c3 |]

